devices/scalable-dark/input-tablet.svg

<svg height="64" width="64" xmlns="http://www.w3.org/2000/svg" xmlns:xlink="http://www.w3.org/1999/xlink"><linearGradient gradientUnits="userSpaceOnUse" x1="184.70731" x2="187.27681" y1="448.4129" y2="70.32579"><stop offset="0" stop-color="#141414"/><stop offset="1" stop-color="#2d2d2f"/></linearGradient><linearGradient id="a" gradientUnits="userSpaceOnUse" x1="357.30374" x2="357.30374" y1="547.43585" y2="513.9823"><stop offset="0" stop-color="#2e3e46"/><stop offset="1" stop-color="#47606a"/></linearGradient><g fill="#fff" fill-opacity=".852041" transform="matrix(1.041741479376 0 0 1.041741533752 18.667131472366 18.574470686425)"><rect fill="url(#a)" fill-opacity="1" height="34.938858" ry="1.644182" transform="matrix(1.1195102 0 0 1.1195102 -387.29792 -581.12048)" width="46.302639" x="334.23404" y="513.12695"/><g fill="#fff" fill-opacity=".852041"><circle cx="-8.516736345048" cy="-1.845323394858" r="2.0986924725"/><circle cx="-8.44865476124" cy="3.75478096115" r="2.0986924725"/><circle cx="-8.45886839794" cy="9.117192071484" r="2.0986924725"/><path d="m12.171 25.303c-.033 0-.066-.004-.099-.011-.117-.027-.219-.1-.283-.201-.744-1.19 1.774-3.053 7.697-7.016 1.585-1.062 3.523-2.357 4.847-3.372-1.342.865-3.15 2.076-4.832 3.203-7.479 5.009-9.104 6-9.658 5.88-.119-.025-.256-.119-.321-.223-.13-.207-.07-.48.135-.615 7.09-4.639 14.379-9.971 16.29-12.188-3.008 1.819-11.817 7.386-17.939 11.276-.102.063-.223.087-.341.059-.117-.025-.218-.099-.282-.199-.102-.163-.204-.438-.113-.824.111-.471.524-1.051 1.174-1.716-.692.44-1.365.871-2.009 1.283-.102.064-.224.085-.341.062-.118-.026-.219-.1-.283-.201-.08-.128-.161-.346-.087-.649.079-.325.392-.763.887-1.276-1.4.855-1.607.889-1.798.85-.118-.025-.231-.104-.295-.208-1.213-1.939 4.817-6.407 15.643-13.47 1.105-.722 2.173-1.417 2.848-1.88-1.968.578-7.316 4.057-13.13 8.284-1.332 1.009-2.819 2.125-4.477 3.362-.539.401-1.039.774-1.409 1.053-.218.169-.435.338-.652.507-.101.078-.231.105-.355.088-.125-.022-.236-.097-.303-.205-.117-.188-.174-.28.125-.568l-.019-.024c.686-.534 3.375-2.618 6.632-4.99 3.14-2.377 6.822-5.221 8.974-7.086-2.056 1.285-5.099 3.229-7.743 4.917-8.807 5.625-8.816 5.625-9.111 5.553-.117-.025-.221-.1-.285-.201-.454-.727.433-1.706 7.537-7.215.784-.608 1.619-1.255 2.302-1.799-1.768 1.063-4.484 3.056-6.181 4.301-3.334 2.447-3.805 2.745-4.182 2.674-.123-.023-.254-.111-.321-.218-.438-.7.455-1.41 4.807-4.406.386-.267.809-.558 1.242-.858-5.396 3.508-5.78 3.627-6.087 3.56-.118-.026-.234-.107-.299-.21-.201-.321-.261-.416 3.332-3.715-1.38.865-2.456 1.422-2.831 1.357-.122-.023-.287-.133-.353-.238-.143-.228-.442-.708 1.966-3.322l.141-.735-.089.441-.248-.374c.025-.019.085-.066.169-.133 1.547-1.231 1.979-1.417 2.322-1.361.126.021.294.131.362.239.112.18.084.413-.067.562-1.322 1.291-2.75 2.839-3.397 3.731 1.37-.743 4.313-2.733 6.947-4.642.194-.141.463-.104.614.081s.13.456-.047.616c-1.64 1.486-3.85 3.505-5.543 5.076 1.615-1.026 3.542-2.288 4.868-3.157 2.87-1.878 2.866-1.873 3.088-1.826.118.026.221.1.286.202.207.332.127.705-.342 1.24.757-.398 1.278-.561 1.617-.495.194.037.355.145.454.302.292.467.31.495-3.976 3.818-1.646 1.275-3.982 3.087-5.563 4.454 1.716-1.078 4.138-2.626 6.387-4.062 10.202-6.515 10.253-6.5 10.556-6.438.117.026.222.101.286.202.202.324.39.624-1.927 2.66 2.175-1.271 3.941-2.06 4.743-1.923.354.063.538.254.632.403.297.477.297.477-3.804 3.151-3.769 2.459-14.718 9.602-15.395 11.832 1.363-.768 5.405-3.409 9.028-5.777 10.113-6.609 11.332-7.298 11.775-7.203.118.026.237.109.302.212.064.103.084.227.057.344-.028.117-.104.219-.206.28-7.94 4.761-16.12 10.209-18.75 12.727 18.727-11.975 19.006-11.901 19.228-11.846.117.026.224.101.287.203.064.102.085.229.058.348-.064.271-.065.277-3.191 2.191-4.188 2.563-13.557 8.3-15.399 10.882 18.056-11.475 18.24-11.429 18.479-11.387.117.027.22.101.284.202.479.766-1.133 2.523-3.674 4.643 2.182-1.418 2.559-1.563 2.82-1.508.119.025.239.108.305.212.608.975-1.239 2.334-6.674 5.97-1.977 1.323-4.898 3.277-6.419 4.604 9.929-6.338 10.069-6.311 10.304-6.266.116.026.221.1.284.201.133.211.068.487-.142.62-.041.024-.084.044-.128.056-.688.337-7.196 4.46-11.472 7.193-.08.046-.164.07-.249.07z"/></g></g></svg>

<?xml version="1.0" encoding="UTF-8" standalone="no"?>
<!-- Created with Inkscape (http://www.inkscape.org/) -->

<svg
   xmlns:sketch="http://www.bohemiancoding.com/sketch/ns"
   xmlns:osb="http://www.openswatchbook.org/uri/2009/osb"
   xmlns:dc="http://purl.org/dc/elements/1.1/"
   xmlns:cc="http://creativecommons.org/ns#"
   xmlns:rdf="http://www.w3.org/1999/02/22-rdf-syntax-ns#"
   xmlns:svg="http://www.w3.org/2000/svg"
   xmlns="http://www.w3.org/2000/svg"
   xmlns:xlink="http://www.w3.org/1999/xlink"
   xmlns:sodipodi="http://sodipodi.sourceforge.net/DTD/sodipodi-0.dtd"
   xmlns:inkscape="http://www.inkscape.org/namespaces/inkscape"
   width="64"
   height="64"
   id="svg5453"
   version="1.1"
   inkscape:version="0.91 r13725"
   sodipodi:docname="input-tablet.svg">
  <defs
     id="defs5455">
    <linearGradient
       osb:paint="gradient"
       id="linearGradient4207">
      <stop
         id="stop3371"
         offset="0"
         style="stop-color:#3498db;stop-opacity:1;" />
      <stop
         id="stop3373"
         offset="1"
         style="stop-color:#3498db;stop-opacity:0;" />
    </linearGradient>
    <linearGradient
       inkscape:collect="always"
       id="linearGradient4503">
      <stop
         style="stop-color:#141414;stop-opacity:1"
         offset="0"
         id="stop4505" />
      <stop
         style="stop-color:#2d2d2f;stop-opacity:1"
         offset="1"
         id="stop4507" />
    </linearGradient>
    <linearGradient
       inkscape:collect="always"
       xlink:href="#linearGradient4503"
       id="linearGradient4314"
       x1="184.70731"
       y1="448.4129"
       x2="187.27681"
       y2="70.32579"
       gradientUnits="userSpaceOnUse" />
    <linearGradient
       y2="513.9823"
       x2="357.30374"
       y1="547.43585"
       x1="357.30374"
       gradientUnits="userSpaceOnUse"
       id="linearGradient4642"
       xlink:href="#linearGradient4191"
       inkscape:collect="always" />
    <linearGradient
       inkscape:collect="always"
       id="linearGradient4191">
      <stop
         style="stop-color:#2e3e46;stop-opacity:1"
         offset="0"
         id="stop4193" />
      <stop
         style="stop-color:#47606a;stop-opacity:1"
         offset="1"
         id="stop4195" />
    </linearGradient>
  </defs>
  <sodipodi:namedview
     id="base"
     pagecolor="#4d4d4d"
     bordercolor="#666666"
     borderopacity="1.0"
     inkscape:pageopacity="0"
     inkscape:pageshadow="2"
     inkscape:zoom="2.8671876"
     inkscape:cx="-9.7292939"
     inkscape:cy="62.090138"
     inkscape:document-units="px"
     inkscape:current-layer="g4338"
     showgrid="false"
     fit-margin-top="0"
     fit-margin-left="0"
     fit-margin-right="0"
     fit-margin-bottom="0"
     inkscape:window-width="1366"
     inkscape:window-height="711"
     inkscape:window-x="0"
     inkscape:window-y="27"
     inkscape:window-maximized="1"
     inkscape:showpageshadow="false"
     borderlayer="true"
     showguides="false"
     inkscape:snap-bbox="true"
     inkscape:object-nodes="true"
     inkscape:snap-global="true"
     units="px"
     width="64in">
    <inkscape:grid
       type="xygrid"
       id="grid4063"
       originx="7.9999849"
       originy="7.9999808"
       empspacing="2" />
    <sodipodi:guide
       position="-1.6503906e-06,3.6328124e-06"
       orientation="0,64"
       id="guide4196" />
    <sodipodi:guide
       position="63.999998,3.6328124e-06"
       orientation="-64,0"
       id="guide4198" />
    <sodipodi:guide
       position="63.999998,64.000004"
       orientation="0,-64"
       id="guide4200" />
    <sodipodi:guide
       position="5.9999983,58.000004"
       orientation="52,0"
       id="guide4202" />
    <sodipodi:guide
       position="5.9999983,6.0000036"
       orientation="0,52"
       id="guide4204" />
    <sodipodi:guide
       position="57.999998,6.0000036"
       orientation="-52,0"
       id="guide4206" />
    <sodipodi:guide
       position="57.999998,58.000004"
       orientation="0,-52"
       id="guide4208" />
  </sodipodi:namedview>
  <metadata
     id="metadata5458">
    <rdf:RDF>
      <cc:Work
         rdf:about="">
        <dc:format>image/svg+xml</dc:format>
        <dc:type
           rdf:resource="http://purl.org/dc/dcmitype/StillImage" />
        <dc:title></dc:title>
      </cc:Work>
    </rdf:RDF>
  </metadata>
  <g
     inkscape:label="Layer 1"
     inkscape:groupmode="layer"
     id="layer1"
     transform="translate(-376.57144,-491.79797)">
    <g
       id="iPhone-4"
       sketch:type="MSLayerGroup"
       transform="matrix(0.07516574,0,0,0.07516574,394.63267,497.76714)">
      <g
         id="g4265"
         transform="matrix(1.1496222,0,0,1,-0.04211555,0)">
        <g
           id="g4342"
           transform="translate(3.0206508e-6,3.4800411)">
          <g
             style="fill:url(#linearGradient4314);fill-opacity:1"
             transform="matrix(1.5167762,0,0,1.7437194,-120.69673,-113.88066)"
             id="g4284-2" />
          <g
             id="g4338"
             transform="matrix(1.2013047,0,0,1,1.8284589,0)">
            <g
               transform="matrix(10.035331,0,0,13.85926,4.3452184,164.22004)"
               style="fill:#ffffff;fill-opacity:0.85204091"
               id="g3426">
              <rect
                 ry="1.6441816"
                 y="513.12695"
                 x="334.23404"
                 height="34.938858"
                 width="46.302639"
                 id="rect4195"
                 style="opacity:1;fill:url(#linearGradient4642);fill-opacity:1;stroke:none;stroke-width:0.2;stroke-linecap:round;stroke-linejoin:round;stroke-miterlimit:4;stroke-dasharray:none;stroke-opacity:1"
                 transform="matrix(1.1195102,0,0,1.1195102,-387.29792,-581.12048)" />
              <circle
                 style="opacity:1;fill:#ffffff;fill-opacity:0.85204091;stroke:none;stroke-width:0.2;stroke-linecap:round;stroke-linejoin:round;stroke-miterlimit:4;stroke-dasharray:none;stroke-opacity:1"
                 id="path4224-8"
                 cx="326.6312"
                 cy="520.66296"
                 r="2.25"
                 transform="matrix(0.93275221,0,0,0.93275221,-313.18271,-487.49485)" />
              <circle
                 style="opacity:1;fill:#ffffff;fill-opacity:0.85204091;stroke:none;stroke-width:0.2;stroke-linecap:round;stroke-linejoin:round;stroke-miterlimit:4;stroke-dasharray:none;stroke-opacity:1"
                 id="path4224-8-8"
                 cx="326.70419"
                 cy="526.66681"
                 r="2.25"
                 transform="matrix(0.93275221,0,0,0.93275221,-313.18271,-487.49485)" />
              <circle
                 style="opacity:1;fill:#ffffff;fill-opacity:0.85204091;stroke:none;stroke-width:0.2;stroke-linecap:round;stroke-linejoin:round;stroke-miterlimit:4;stroke-dasharray:none;stroke-opacity:1"
                 id="path4224-8-5"
                 cx="326.69324"
                 cy="532.41583"
                 r="2.25"
                 transform="matrix(0.93275221,0,0,0.93275221,-313.18271,-487.49485)" />
              <path
                 style="fill:#ffffff;fill-opacity:0.85204091"
                 inkscape:connector-curvature="0"
                 d="m 12.171,25.303 c -0.033,0 -0.066,-0.004 -0.099,-0.011 -0.117,-0.027 -0.219,-0.1 -0.283,-0.201 -0.744,-1.19 1.774,-3.053 7.697,-7.016 1.585,-1.062 3.523,-2.357 4.847,-3.372 -1.342,0.865 -3.15,2.076 -4.832,3.203 -7.479,5.009 -9.104,6 -9.658,5.88 C 9.724,23.761 9.587,23.667 9.522,23.563 9.392,23.356 9.452,23.083 9.657,22.948 16.747,18.309 24.036,12.977 25.947,10.76 22.939,12.579 14.13,18.146 8.008,22.036 7.906,22.099 7.785,22.123 7.667,22.095 7.55,22.07 7.449,21.996 7.385,21.896 7.283,21.733 7.181,21.458 7.272,21.072 7.383,20.601 7.796,20.021 8.446,19.356 7.754,19.796 7.081,20.227 6.437,20.639 6.335,20.703 6.213,20.724 6.096,20.701 5.978,20.675 5.877,20.601 5.813,20.5 5.733,20.372 5.652,20.154 5.726,19.851 5.805,19.526 6.118,19.088 6.613,18.575 5.213,19.43 5.006,19.464 4.815,19.425 4.697,19.4 4.584,19.321 4.52,19.217 3.307,17.278 9.337,12.81 20.163,5.747 21.268,5.025 22.336,4.33 23.011,3.867 21.043,4.445 15.695,7.924 9.881,12.151 8.549,13.16 7.062,14.276 5.404,15.513 4.865,15.914 4.365,16.287 3.995,16.566 3.777,16.735 3.56,16.904 3.343,17.073 3.242,17.151 3.112,17.178 2.988,17.161 2.863,17.139 2.752,17.064 2.685,16.956 2.568,16.768 2.511,16.676 2.81,16.388 L 2.791,16.364 C 3.477,15.83 6.166,13.746 9.423,11.374 12.563,8.997 16.245,6.153 18.397,4.288 16.341,5.573 13.298,7.517 10.654,9.205 1.847,14.83 1.838,14.83 1.543,14.758 1.426,14.733 1.322,14.658 1.258,14.557 0.804,13.83 1.691,12.851 8.795,7.342 9.579,6.734 10.414,6.087 11.097,5.543 9.329,6.606 6.613,8.599 4.916,9.844 1.582,12.291 1.111,12.589 0.734,12.518 0.611,12.495 0.48,12.407 0.413,12.3 -0.025,11.6 0.868,10.89 5.22,7.894 5.606,7.627 6.029,7.336 6.462,7.036 1.066,10.544 0.682,10.663 0.375,10.596 0.257,10.57 0.141,10.489 0.076,10.386 -0.125,10.065 -0.185,9.97 3.408,6.671 2.028,7.536 0.952,8.093 0.577,8.028 0.455,8.005 0.29,7.895 0.224,7.79 0.081,7.562 -0.218,7.082 2.19,4.468 L 2.331,3.733 2.242,4.174 1.994,3.8 C 2.019,3.781 2.079,3.734 2.163,3.667 3.71,2.436 4.142,2.25 4.485,2.306 4.611,2.327 4.779,2.437 4.847,2.545 4.959,2.725 4.931,2.958 4.78,3.107 3.458,4.398 2.03,5.946 1.383,6.838 2.753,6.095 5.696,4.105 8.33,2.196 8.524,2.055 8.793,2.092 8.944,2.277 9.095,2.462 9.074,2.733 8.897,2.893 7.257,4.379 5.047,6.398 3.354,7.969 4.969,6.943 6.896,5.681 8.222,4.812 c 2.87,-1.878 2.866,-1.873 3.088,-1.826 0.118,0.026 0.221,0.1 0.286,0.202 0.207,0.332 0.127,0.705 -0.342,1.24 0.757,-0.398 1.278,-0.561 1.617,-0.495 0.194,0.037 0.355,0.145 0.454,0.302 0.292,0.467 0.31,0.495 -3.976,3.818 C 7.703,9.328 5.367,11.14 3.786,12.507 5.502,11.429 7.924,9.881 10.173,8.445 20.375,1.93 20.426,1.945 20.729,2.007 c 0.117,0.026 0.222,0.101 0.286,0.202 0.202,0.324 0.39,0.624 -1.927,2.66 2.175,-1.271 3.941,-2.06 4.743,-1.923 0.354,0.063 0.538,0.254 0.632,0.403 C 24.76,3.826 24.76,3.826 20.659,6.5 16.89,8.959 5.941,16.102 5.264,18.332 6.627,17.564 10.669,14.923 14.292,12.555 24.405,5.946 25.624,5.257 26.067,5.352 c 0.118,0.026 0.237,0.109 0.302,0.212 0.064,0.103 0.084,0.227 0.057,0.344 C 26.398,6.025 26.322,6.127 26.22,6.188 18.28,10.949 10.1,16.397 7.47,18.915 26.197,6.94 26.476,7.014 26.698,7.069 26.815,7.095 26.922,7.17 26.985,7.272 27.049,7.374 27.07,7.501 27.043,7.62 26.979,7.891 26.978,7.897 23.852,9.811 19.664,12.374 10.295,18.111 8.453,20.693 26.509,9.218 26.693,9.264 26.932,9.306 c 0.117,0.027 0.22,0.101 0.284,0.202 0.479,0.766 -1.133,2.523 -3.674,4.643 2.182,-1.418 2.559,-1.563 2.82,-1.508 0.119,0.025 0.239,0.108 0.305,0.212 0.608,0.975 -1.239,2.334 -6.674,5.97 -1.977,1.323 -4.898,3.277 -6.419,4.604 9.929,-6.338 10.069,-6.311 10.304,-6.266 0.116,0.026 0.221,0.1 0.284,0.201 0.133,0.211 0.068,0.487 -0.142,0.62 -0.041,0.024 -0.084,0.044 -0.128,0.056 -0.688,0.337 -7.196,4.46 -11.472,7.193 -0.08,0.046 -0.164,0.07 -0.249,0.07 z"
                 id="path4404" />
            </g>
          </g>
        </g>
      </g>
    </g>
    <g
       id="layer1-4"
       inkscape:label="Layer 1"
       transform="translate(-32.493244,0.43261636)" />
  </g>
</svg>
